X:166
T:Retirement Party Reel
R:reel
C:Bruce Osborne  --  Dec. 1991
Z:abc by bosborne@kos.net
M:2/4
L:1/8
K:A
E|AA/B/ c/B/A/E/|FA EE/D/|C/E/A/B/ c/B/A/c/|B[B e] [eBe]E|\
AA/B/ c/B/A/E/|FA EE/D/|C/E/A/c/ B/A/G/B/|Ac A:|
|:c/d/|e/c/A/c/ e/c/A/c/|B/A/G/B/ Ac/d/|e/c/A/c/ e/c/A/c/|B/c/B/A/ Bc/d/|\
e/c/A/c/ e/c/A/c/|B/A/G/B/ AE/D/|C/E/A/c/ B/A/G/B/|Ac A:|
